!!!COM: Bach, Johann Sebastian
!!!CDT: 1685/3//-1750/7/28/
!!!OTL@@DE: Komm, Gott Schoepfer, heiliger Geist
!!!AGN: 4-Part Chorale
!!!SCT: BH 187
!!!SCT: BWV 370
**harm	**root	**kern	**kern	**kern	**kern
!	!	!bass	!tenor	!alto	!soprno
*	*Iorgan	*Iorgan	*Iorgan	*Iorgan	*Iorgan
*M4/4	*M4/4	*M4/4	*M4/4	*M4/4	*M4/4
*met(c)	*met(c)	*met(c)	*met(c)	*met(c)	*met(c)
*MM60	*MM60	*MM60	*MM60	*MM60	*MM60
*k[f#c#g#d#a#]	*k[f#c#g#d#a#]	*k[f#c#g#d#a#]	*k[f#c#g#d#a#]	*k[f#c#g#d#a#]	*k[f#c#g#d#a#]
*F#:	*F#:	*F#:	*F#:	*F#:	*F#:
I	4GG	4F#	4A#	8c#	4f#
.	.	.	.	8d#	.
=1	=1	=1	=1	=1	=1
-VII	4FF	4E	4B	[4e	4g#
IV	4CC	4BB	4B	8e]	4f#
.	.	.	.	[8d#	.
v	4DD	4C#	4G#	8d#]	4e
.	.	.	.	16c#	.
.	.	.	.	16B	.
vi	4EE	4D#	8F#	8A#	4f#
.	.	.	16B	[8d#	.
.	.	.	16A#	.	.
=2	=2	=2	=2	=2	=2
ii	8AA	4GG#	8B	8d#]	4b
-VIIb	8FF	.	8e	8B	.
I	4GG	4FF#	4A#	8f#	4cc#
.	.	.	.	8e	.
IV;	4CC;	4BB;	4F#;	4d#;	4b;
-VII	4FF	4E	4G#	8B	4b
.	.	.	.	8c#	.
=3	=3	=3	=3	=3	=3
vi	4EE	4D#	8A#	4d#	4f#
.	.	.	8B	.	.
iiiob	4BB	4C#	4c#	4e	4a#
IV	4CC	4.BB	4d#	4f#	4b
I	4GG	.	[4c#	4f#	4cc#
.	.	8AA#	.	.	.
=4	=4	=4	=4	=4	=4
IV	4CC	4BB	8c#]	[4f#	4dd#
.	.	.	16B	.	.
.	.	.	16A#	.	.
IV	8CC	4BBB	8B	8f#]	4dd#
vii7c	8FF#	.	8G#	8e#	.
I;	4GG;	4FF#;	4A#;	4f#;	4cc#;
I	4GG	4F#	4A#	4f#	4cc#
!!linebreak: 2
=5	=5	=5	=5	=5	=5
IV	4CC	4BB	8B	4f#	8dd#
.	.	.	8A#	.	8cc#
IVb	4CC	4D#	4B	[4f#	4b
-VII	4FF	4E	4B	8f#]	4g#
.	.	.	.	[8e	.
IV	4CC	4B	4B	8e]	4f#
.	.	.	.	8d#	.
=6	=6	=6	=6	=6	=6
I	4GG	8F#	4c#	4f#	4a#
.	.	8E	.	.	.
vii/v	4CC#	4D#	4d#	4f#	4b#
v;	4DD;	4C#;	4e;	4g#;	4cc#;
vi	4EE	4D#	4A#	4d#	4f#
=7	=7	=7	=7	=7	=7
ii	4AA	8GG#	4G#	8d#	4b
.	.	8AA#	.	8c#	.
iib	4AA	4BB	4G#	[4d#	4g#
v	8DD	4C#	8G#	8d#]	4e
-IIIb	8BB-	.	8A	16c#	.
.	.	.	.	16d#	.
-VIIb	4FF	4GG#	4B	[4e	4g#
=8	=8	=8	=8	=8	=8
I7b	4GG	4AA#	[4c#	4e]	2f#
IV	4CC	4BB	8c#]	4d#	.
.	.	.	[8B	.	.
I;	4GG;	4FF#;	8B]	4c#;	4f#;
.	.	.	8A#;	.	.
==	==	==	==	==	==
*-	*-	*-	*-	*-	*-
!!chor2scor: -l 2 -s 0.6 -o %b.pmx
!!!YEC: Copyright 1994, David Huron
!!!YEC: Changes/Additions 2001 by Craig Stuart Sapp
!!!YEN: United States of America
!!!SMA: 371 Bach Chorales, edited by Ludwig Erk, C.F. Peters
!!!PDT: 1850, 1865
!!!ONB: Harmony and Root analysis done manually
!!!ONB: Actual key is G Mixolydian 
